hand-heart-outline.svg

<svg fill="currentColor" viewBox="0 0 24 24"><path d="M16 3.23Q17.065 2 18.7 2c.91 0 1.67.33 2.3 1s.96 1.43 1 2.3c0 .7-.33 1.51-1 2.46s-1.32 1.74-1.97 2.39q-.975.96-3.03 2.85-2.085-1.89-3.06-2.85c-.975-.96-1.31-1.44-1.97-2.39S10 6 10 5.3c0-.91.32-1.67.97-2.3s1.43-.96 2.34-1c1.07 0 1.96.41 2.69 1.23M22 19v1l-8 2.5-7-1.94V22H1V11h7.97l6.16 2.3A2.89 2.89 0 0 1 17 16h2c1.66 0 3 1.34 3 3M5 20v-7H3v7zm14.9-1.43c-.16-.33-.51-.57-.9-.57h-5.35c-.54 0-1.07-.08-1.58-.25l-2.38-.79.63-1.9 2.38.79c.3.1 2.3.15 2.3.15 0-.37-.23-.7-.57-.83L8.61 13H7v5.5l6.97 1.91z"/></svg>

<svg  viewBox="0 0 24 24" fill="currentColor"><path  d="M16 3.23C16.71 2.41 17.61 2 18.7 2C19.61 2 20.37 2.33 21 3C21.63 3.67 21.96 4.43 22 5.3C22 6 21.67 6.81 21 7.76S19.68 9.5 19.03 10.15C18.38 10.79 17.37 11.74 16 13C14.61 11.74 13.59 10.79 12.94 10.15S11.63 8.71 10.97 7.76C10.31 6.81 10 6 10 5.3C10 4.39 10.32 3.63 10.97 3C11.62 2.37 12.4 2.04 13.31 2C14.38 2 15.27 2.41 16 3.23M22 19V20L14 22.5L7 20.56V22H1V11H8.97L15.13 13.3C16.25 13.72 17 14.8 17 16H19C20.66 16 22 17.34 22 19M5 20V13H3V20H5M19.9 18.57C19.74 18.24 19.39 18 19 18H13.65C13.11 18 12.58 17.92 12.07 17.75L9.69 16.96L10.32 15.06L12.7 15.85C13 15.95 15 16 15 16C15 15.63 14.77 15.3 14.43 15.17L8.61 13H7V18.5L13.97 20.41L19.9 18.57Z"/></svg>
